assets/Chopsticks/Flat/chopsticks_flat.svg

<svg width="32" height="32" viewBox="0 0 32 32" fill="none" xmlns="http://www.w3.org/2000/svg">
<path d="M14.0431 8.09876L14.0943 8.16844L8.71359 29.3538C8.63359 29.6538 8.39359 29.8938 8.09359 29.9738C7.46359 30.1438 6.87359 29.5738 7.02359 28.9338L11.7416 7.75166L11.8175 7.71399L14.0431 8.09876Z" fill="#CA0B4A"/>
<path d="M21.85 10.6897L21.882 10.7896L11.3736 29.5639C11.2136 29.8339 10.9236 30.0039 10.6136 30.0039C9.95357 30.0039 9.53357 29.3039 9.84357 28.7139L19.6918 9.84223L19.7899 9.79846L21.85 10.6897Z" fill="#CA0B4A"/>
<path d="M12.8036 2.98384L11.7416 7.75172L14.0943 8.1685L15.2536 3.60384C15.5036 2.66384 14.6436 1.80384 13.7036 2.05384C13.2536 2.17384 12.9136 2.53384 12.8036 2.98384Z" fill="#321B41"/>
<path d="M22.1436 5.14388L19.6918 9.84217L21.882 10.7896L24.3536 6.37388C24.8336 5.52388 24.2236 4.47388 23.2536 4.47388C22.7936 4.47388 22.3636 4.73388 22.1436 5.14388Z" fill="#321B41"/>
</svg>

<svg xmlns="http://www.w3.org/2000/svg" width="32" height="32" fill="none"><path fill="#CA0B4A" d="m14.043 8.099.051.07-5.38 21.185a.87.87 0 0 1-1.69-.42l4.718-21.182.075-.038 2.226.385ZM21.85 10.69l.032.1-10.508 18.774a.89.89 0 0 1-.76.44c-.66 0-1.08-.7-.77-1.29l9.848-18.872.098-.044 2.06.892Z"/><path fill="#321B41" d="m12.804 2.984-1.062 4.768 2.352.417 1.16-4.565c.25-.94-.61-1.8-1.55-1.55-.45.12-.79.48-.9.93ZM22.144 5.144l-2.452 4.698 2.19.948 2.472-4.416c.48-.85-.13-1.9-1.1-1.9-.46 0-.89.26-1.11.67Z"/></svg>
